X: 1067
T: The Butcher's Cave
R:double jig
N:"collected by J.O'Neill"
B:O'Neill's 1067
Z:Transcribed by henrik.norbeck@mailbox.swipnet.se
M:6/8
L:1/8
K:D
(A/G/)|FDD FDD|FAG FED|ABA AGF|GAG GFG|
ABA cAG|Ade fed|cAF EAG|EDD D2:|
(d/e/)|fdd add|fdd ded|fdd add|ged cde|
fdd add|(f/g/a)f ecA|cAF EAG|EDD D2:|


